X: 258
T: Ben Sana Aşık...
C: Dede Efendi
O: Turkey
F: http://compmusic.upf.edu/node/140
N: muhayyer--sarki--yuruksemai--ben_sana_asik--dede_efendi
N: makam= muhayyer
N: form= sarki
N: usul= yuruksemai = 6/8
M: 6/8
L: 1/16
K: C _2/4B ^3/4f  
Q: 1/4=60
%%MIDI tuningsystem comma53
g8a4a4  | d'2c'2_1/4b2a2g6^f2  | g4a2=b2b2a2g2^f2  | \
w:   |   |   | 
e2z2e6d2c4  | 
w:   | 
dcd2d2c2_1/4B2z2c6B2A2B2d2c2B2A2  | \
w:   | 
G2z2d4e4a2g2  | 
w:   | 
^f2e2d4c6_1/4B2  | _1/4B2A2A8z4  | z4^f4g4a4  | \
w:   |   |   | 
a8a8  | a4_1/4b4g4z4  | d'2c'2_1/4b2a2g4d'c'd'2  | 
w:   |   |   | 
d'2c'2c'4c'6_1/4b2  | _1/4b2a2c'3ba8  | \
w:   |   | 
z4^f4g4a4  | a8a8  | a4_1/4b4g4z4  | d'2c'2_1/4b2a2g4d'c'd'2  | 
w:   |   |   |   | 
d'2c'2c'4c'6_1/4b2  | _1/4b2a2c'3ba8  | \
w:   |   | 
z4g4a4a4  | d'2c'2_1/4b2a2g6^f2  | g4a2=b2b2a2g2^f2  | 
w:   |   |   | 
e2z2e6d2c4  | dcd2d2c2_1/4B2z2c6B2A2B2d2c2B2A2  | \
w:   |   | 
G2z2d4e4a2g2  | 
w:   | 
^f2e2d4c6_1/4B2  | _1/4B2A2A12  | z4g4a4a4  | \
w:   |   |   | 
d'2c'2_1/4b2a2g6^f2  | g4a2=b2b2a2g2^f2  | 
w:   |   | 
e2z2e6d2c4  | dcd2d2c2_1/4B2z2c6B2A2B2d2c2B2A2  | \
w:   |   | 
G2z2d4e4a2g2  | 
w:   | 
^f2e2d4c6_1/4B2  | _1/4B2A2A12  | z4g4d'4c'2_1/4b2  | \
w:   |   |   | 
c'4z4c'6_1/4b2  | d'4c'2_1/4b2b2^a2b4  | 
w:   |   | 
d'2c'2_1/4b2a2g4d'c'd'2  | d'2c'2c'2_1/4b2c'6b2  | \
w:   |   | 
a2_1/4b2c'2b2c'8  | z4g4d'4c'2_1/4b2  | 
w:   |   | 
c'4z4c'6_1/4b2  | d'4c'2_1/4b2b2^a2b4  | \
w:   |   | 
d'2c'2_1/4b2a2g4d'c'd'2  | d'2c'2c'2_1/4b2c'6b2  | 
w:   |   | 
_1/4b2a2c'3ba8  | z4g4a4a4  | d'2c'2_1/4b2a2g6^f2  | \
w:   |   |   | 
g4a2=b2b2a2g2^f2  | 
w:   | 
e2z2e6d2c4  | dcd2d2c2_1/4B2z2c6B2A2B2d2c2B2A2  | \
w:   |   | 
G2z2d4e4a2g2  | 
w:   | 
^f2e2d4c6_1/4B2  | _1/4B2A2A12  | z4g4a4a4  | \
w:   |   |   | 
d'2c'2_1/4b2a2g6^f2  | g4a2=b2b2a2g2^f2  | 
w:   |   | 
e2z2e6d2c4  | dcd2d2c2_1/4B2z2c6B2A2B2d2c2B2A2  | \
w:   |   | 
G2z2d4e4a2g2  | 
w:   | 
^f2e2d4c6_1/4B2  | _1/4B2A2A12  | |


